X:2
T:Blue Moon
C:Richard Rodgers
L:1/8
M:C
I:linebreak $
K:E
"F7" B2 |:S"E" B4"C#m" z4 |"F#m" z ABc"F7" B B2 A |"E" B4"C#m" z4 |"F#m" z FGA"F#ø" G G2 F |$
"G#m" G4"C#m" z4 |"F#m" z EFG"B4" E E2 E ||1"E6" E4"Go" z4 |"F#m" z4"F7" B4 :|2$"E6" E4"F" z4 |
"E" z4"C#m" z EEE |"F#m" FFFF"F7" G2 G2 |"E6" E2 E2"C#m" z EEE |$"F#m" FFFF"F7" G2 G2 |
"E6" E4"C#m" z EEE ||[K:G]"Am" EEEE"Ab7" F2 F2 |"G" D2 D2"Em" z DDD ||$
[K:E]"D#m" DD"G#7"DD"C#m" F2"F#7" F2 |"F#m" B4"F7" z2"_D.S. al 3rd end." B2 ||3"E6" E8 |]

